dist/svg/light2-o.svg

<!-- Generated by Trend Micro Style Portal -->
<svg version="1.1" xmlns="http://www.w3.org/2000/svg" width="16" height="16" viewBox="0 0 16 16">
  <title>light2-o</title>
  <path fill="rgb(34,34,34)" d="M8.8 2.5h-1.6v-2.5h1.5v2.5zM0 9h2.2v-1.5h-2.2v1.5zM13.8 7.5v1.5h2.2v-1.5h-2.2zM2.9 1.8l-1.1 1.1 1.4 1.4 1.1-1.1-1.4-1.4zM13.1 1.8l-1.4 1.4 1.1 1.1 1.4-1.4-1.1-1.1zM12.2 6.5c1.2 2.3 0.4 5.2-1.9 6.4v3.1h-4.5v-3.1c-0.8-0.4-1.5-1.1-1.9-1.9-1.3-2.3-0.5-5.2 1.8-6.4 2.3-1.3 5.2-0.4 6.5 1.9zM9.5 5.8c-1.5-0.8-3.5-0.2-4.4 1.4s-0.3 3.6 1.3 4.4l0.8 0.4v2.5h1.5v-2.5l0.8-0.4c0.6-0.3 1-0.8 1.3-1.3 0.9-1.6 0.3-3.6-1.3-4.5z"></path>
</svg>

<svg width="16" height="16" viewBox="0 0 16 16" fill="rgb(34, 34, 34)" xmlns="http://www.w3.org/2000/svg"><title>light2-o</title><path d="M8.8 2.5H7.2V0H8.7V2.5H8.8ZM0 9H2.2V7.5H0V9ZM13.8 7.5V9H16V7.5H13.8ZM2.9 1.8L1.8 2.9L3.2 4.3L4.3 3.2L2.9 1.8ZM13.1 1.8L11.7 3.2L12.8 4.3L14.2 2.9L13.1 1.8ZM12.2 6.5C13.4 8.8 12.6 11.7 10.3 12.9V16H5.8V12.9C5 12.5 4.3 11.8 3.9 11C2.6 8.7 3.4 5.8 5.7 4.6C8 3.3 10.9 4.2 12.2 6.5ZM9.5 5.8C8 5 6 5.6 5.1 7.2C4.2 8.8 4.8 10.8 6.4 11.6L7.2 12V14.5H8.7V12L9.5 11.6C10.1 11.3 10.5 10.8 10.8 10.3C11.7 8.7 11.1 6.7 9.5 5.8Z" fill="rgb(34, 34, 34)" fill-opacity="1.00"/></svg>
